icon-themes/breeze_svg/cmd/32/sortascending.svg

<svg viewBox="0 0 32 32" xmlns="http://www.w3.org/2000/svg"><path d="m8.1757812 14 .048828.900391h4.2578128l-4.482422 6.291015v.808594h6l-.0332-.9375h-4.4414094l4.4003904-6.201172v-.861328zm12.8242188 0v12.085938l-3.792969-3.792969-.707031.707031 4 4 1 1 1-1 4-4-.707031-.707031-3.792969 3.792969v-12.085938z" fill="#4d4d4d"/><path d="m11.091797 4c-1.032887 0-1.9647119.1911907-2.7929689.5742188l.3300781.8867187c.3556633-.1696938.7597842-.3004556 1.2128907-.3925781.4531061-.0969708.8768461-.1445313 1.2714841-.1445313.584653 0 1.011333.1377016 1.279297.4140625.272842.2763676.408203.6953876.408203 1.2578125v.7578125h-1.234375c-1.242389 0-2.1487128.1951662-2.7187498.5878906-.565165.387883-.8476562 1.0000468-.8476562 1.8339844 0 .6981814.2138308 1.2420344.6425781 1.6347654.4336125.392725 1.0074168.589844 1.7187499.589844 1.062118 0 1.923329-.405147 2.585938-1.214844l.132812 1.0625h.919922v-5.0761716c0-.9793971-.253062-1.6856708-.759766-2.1171875-.501824-.4363583-1.217865-.6542969-2.148437-.6542969zm.78125 4.1523438h.927734v1.6953124c-.57978.8484888-1.368403 1.2714848-2.367187 1.2714848-.365407 0-.6704581-.11493-.9140628-.347657-.2436046-.232727-.3652343-.563565-.3652343-.990234 0-.2375753.0225665-.4357057.0664062-.5957031.0438464-.1648523.1233039-.3154155.2402344-.4511719.1169305-.1406046.2777919-.248594.4824219-.3261719.2046296-.0824327.4665146-.1458259.7832026-.1894531.316682-.0436272.69825-.0664062 1.146485-.0664062z" fill="#1d99f3"/></svg>

<svg xmlns="http://www.w3.org/2000/svg" viewBox="0 0 32 32">
 <path 
     style="fill:#4d4d4d" 
     d="M 8.1757812 14 L 8.2246094 14.900391 L 12.482422 14.900391 L 8 21.191406 L 8 22 L 14 22 L 13.966797 21.0625 L 9.5253906 21.0625 L 13.925781 14.861328 L 13.925781 14 L 8.1757812 14 z M 20.5 14 L 20.5 26.085938 L 16.707031 22.292969 L 16 23 L 20 27 L 21 28 L 22 27 L 26 23 L 25.292969 22.292969 L 21.5 26.085938 L 21.5 14 L 20.5 14 z "
     />
 <path 
     style="fill:#1d99f3" 
     d="M 11.091797 4 C 10.05891 4 9.1270851 4.1911907 8.2988281 4.5742188 L 8.6289062 5.4609375 C 8.9845695 5.2912437 9.3886904 5.1604819 9.8417969 5.0683594 C 10.294903 4.9713886 10.718643 4.9238281 11.113281 4.9238281 C 11.697934 4.9238281 12.124614 5.0615297 12.392578 5.3378906 C 12.66542 5.6142582 12.800781 6.0332782 12.800781 6.5957031 L 12.800781 7.3535156 L 11.566406 7.3535156 C 10.324017 7.3535156 9.4176932 7.5486818 8.8476562 7.9414062 C 8.2824912 8.3292892 8 8.941453 8 9.7753906 C 8 10.473572 8.2138308 11.017425 8.6425781 11.410156 C 9.0761906 11.802881 9.6499949 12 10.361328 12 C 11.423446 12 12.284657 11.594853 12.947266 10.785156 L 13.080078 11.847656 L 14 11.847656 L 14 6.7714844 C 14 5.7920873 13.746938 5.0858136 13.240234 4.6542969 C 12.73841 4.2179386 12.022369 4 11.091797 4 z M 11.873047 8.1523438 L 12.800781 8.1523438 L 12.800781 9.8476562 C 12.221001 10.696145 11.432378 11.119141 10.433594 11.119141 C 10.068187 11.119141 9.7631359 11.004211 9.5195312 10.771484 C 9.2759266 10.538757 9.1542969 10.207919 9.1542969 9.78125 C 9.1542969 9.5436747 9.1768634 9.3455443 9.2207031 9.1855469 C 9.2645495 9.0206946 9.344007 8.8701314 9.4609375 8.734375 C 9.577868 8.5937704 9.7387294 8.485781 9.9433594 8.4082031 C 10.147989 8.3257704 10.409874 8.2623772 10.726562 8.21875 C 11.043244 8.1751228 11.424812 8.1523438 11.873047 8.1523438 z "
     />
</svg>
